dist/svg/tools-configuration.svg

<!-- Generated by Trend Micro Style Portal -->
<svg version="1.1" xmlns="http://www.w3.org/2000/svg" width="16" height="16" viewBox="0 0 16 16">
  <title>tools-configuration</title>
  <path fill="rgb(34,34,34)" d="M8.596 10.697l5.004 5.004c0.4 0.4 1 0.4 1.4 0l0.7-0.8c0.4-0.4 0.4-1 0-1.4l-4.928-4.928c-0.007-0.002-0.014-0.003-0.021-0.005l-2.155 2.129zM7 3l-4.714-3-2.286 2.286 3 4.714 2.789 0.004 1.223-1.205-0.013-2.799zM16 3.893c0 0.536-0.098 1.036-0.295 1.5-0.205 0.473-0.48 0.884-0.824 1.232s-0.743 0.621-1.199 0.817c-0.455 0.205-0.942 0.308-1.46 0.308-0.295 0-0.589-0.025-0.884-0.074s-0.571-0.141-0.83-0.275l-8.446 8.343c-0.179 0.17-0.382 0.254-0.609 0.254s-0.426-0.085-0.596-0.254l-0.603-0.683c-0.17-0.17-0.254-0.368-0.254-0.596s0.085-0.431 0.254-0.609l8.46-8.33c-0.232-0.473-0.362-0.964-0.388-1.473-0.036-0.509 0.025-0.996 0.181-1.46s0.4-0.888 0.73-1.272c0.321-0.393 0.719-0.705 1.192-0.938 0.473-0.214 0.96-0.339 1.46-0.375s0.987 0.031 1.46 0.201l-2.237 2.223c-0.17 0.17-0.254 0.371-0.254 0.603s0.085 0.433 0.254 0.603l1.205 1.192c0.17 0.179 0.368 0.268 0.596 0.268s0.426-0.089 0.596-0.268l2.237-2.223c0.080 0.214 0.143 0.429 0.188 0.643s0.067 0.429 0.067 0.643z"></path>
</svg>

<svg width="16" height="16" viewBox="0 0 16 16" fill="rgb(34, 34, 34)" xmlns="http://www.w3.org/2000/svg"><title>tools-configuration</title><path d="M8.596 10.697L13.6 15.701C14 16.101 14.6 16.101 15 15.701L15.7 14.901C16.1 14.501 16.1 13.901 15.7 13.501L10.772 8.573C10.765 8.571 10.758 8.57 10.751 8.568L8.596 10.697ZM7 3L2.286 2.56579e-06L0 2.286L3 7L5.789 7.004L7.012 5.799L7 3ZM16 3.893C16 4.429 15.902 4.929 15.705 5.393C15.5 5.866 15.225 6.277 14.881 6.625C14.537 6.973 14.138 7.246 13.682 7.442C13.227 7.647 12.74 7.75 12.222 7.75C11.927 7.75 11.633 7.725 11.338 7.676C11.043 7.627 10.767 7.535 10.508 7.401L2.062 15.744C1.883 15.914 1.68 15.998 1.453 15.998C1.226 15.998 1.027 15.913 0.857 15.744L0.254 15.061C0.084 14.891 0 14.693 0 14.465C0 14.237 0.085 14.034 0.254 13.856L8.714 5.526C8.482 5.053 8.352 4.562 8.326 4.053C8.29 3.544 8.351 3.057 8.507 2.593C8.663 2.129 8.907 1.705 9.237 1.321C9.558 0.928003 9.956 0.616003 10.429 0.383003C10.902 0.169003 11.389 0.0440026 11.889 0.00800257C12.389 -0.0279974 12.876 0.0390026 13.349 0.209003L11.112 2.432C10.942 2.602 10.858 2.803 10.858 3.035C10.858 3.267 10.943 3.468 11.112 3.638L12.317 4.83C12.487 5.009 12.685 5.098 12.913 5.098C13.141 5.098 13.339 5.009 13.509 4.83L15.746 2.607C15.826 2.821 15.889 3.036 15.934 3.25C15.979 3.464 16 3.679 16 3.893Z" fill="rgb(34, 34, 34)" fill-opacity="1.00"/></svg>
